X:271
T:White Trilliams On A Hill Reel
R:reel
C:Bruce Osborne - April 2002
Z:abc by bosborne@kos.net
M:2/4
L:1/8
K:Amaj
c/d/|e/c/A/c/ e/c/A/c/|d/c/d/e/ f/a/g/f/|e/c/A/c/ e/c/A/c/|B/A/B/c/ Bc/d/|\
e/c/A/c/ e/c/A/c/|d/c/d/e/ f/a/g/f/|e/c/A/c/ e/c/A/c/|(3B/c/B/ G/B/ A:|
|:E/D/|C/B,/C/D/ E/F/E/C/|D/C/D/E/ F/A/G/F/|E/C/A,/C/ E/C/A,/C/|B,/A,/B,/C/ B,E/D/|\
C/B,/C/D/ E/F/E/C/|D/C/D/E/ F/A/G/F/|E/C/A,/C/ E/C/A,/C/|(3B,/C/B,/ G,/B,/ A,:|
